X:1
T: Sir James Grant
C:J. Anderson
R:Strathspey
Q: 128
K:Eb
M:4/4
L:1/16
|:BA|G3E B,3E G,3E B,3E|G3E B,3E D3F F2BA|G3E B3G e3B g4|A3c B3A G2E2 E2BA|
G3E B,3E G,3E B,3E|G3E B,3E D3F F2BA|G3E B3G e3B g4|A3c B3A G2E2 E2((3Bcd)|
e3B G3B E2B2 e2g2|e2E2 cBAG A2F2 F4|e3B G3B E2e2 g2b2|a3g f3a g2e2 e4|
e2B2 G2E2 G2E2 B,2G,2|B,EFG AGFE D2F2 F4|E2B2 G2e2 B2g2 e2b2|AGAG FcBA G2E2 E2:|
